X: 1
T:An Brstn Mire
R:jig
C:Trad
M:6/8
L:1/8
K:DMix
A|D2E F2G|A2d cAG|A3 B2G|ABA A2F|!
D2E F2G|A2d cAG|F2A G2E|1 DDD D2A:|2 DDD DFA !
|:d3 f2d|e2d cAG|A3 B2G|ABA A2B|!
d2e f2d|e2d cAG|F2A G2E|1 DDD DFA:|2 DDD D3||!
